X: 336
T:Petite camusette
N: Derived from Jos2731-Petite_camusette.krn
C: Josquin des Prez
%%abc-version 2.0
%%abcx-abcm2ps-target-version 5.9.1 (29 Sep 2008)
%%abc-creator hum2abc beta
%%abcx-conversion-date 2019/02/12 16:15:54
%%abc-edited-by Jesse Rodin
%%abc-edited-by Megan K. Eagen 05/28/2012
%%abcx-initial-encoding-date 2012/05/28/
%%humdrum-veritas 3026105673
%%humdrum-veritas-data 1317743288
%%linebreak <none>
%%barnumbers 0
L: 1/4
M: 2/1
Q: 1/2=120
V: 1 clef=treble
V: 2 clef=treble-8
V: 3 clef=bass
K: C
[V:1] B8 | 
[V:2] z8 | 
[V:3] z8 | 
[V:1] E4B4 | 
[V:2] e8 | 
[V:3] z8 | 
[V:1] c4B4 | 
[V:2] A4e4 | 
[V:3] z8 | 
[V:1] A4G4 | 
[V:2] f4e4 | 
[V:3] z8 | 
[V:1] A8 | 
[V:2] d4c4 | 
[V:3] z8 | 
[V:1] B6A2 | 
[V:2] d8 | 
[V:3] z8 | 
[V:1] G3ABcB2- | 
[V:2] e6d2 | 
[V:3] z8 | 
[V:1] BAA4G2 | 
[V:2] c4_B4 | 
[V:3] E,8 | 
[V:1] A4z2G2 | 
[V:2] A3Bcde2- | 
[V:3] A,,4E,4 | 
[V:1] A6G2 | 
[V:2] edd4c2 | 
[V:3] F,4E,4 | 
[V:1] F4E4 | 
[V:2] d2A2c4 | 
[V:3] D,4C,4 | 
[V:1] D4z2F2 | 
[V:2] B2AGA2B2- | 
[V:3] D,8 | 
[V:1] G6F2 | 
[V:2] B2EFGAB2- | 
[V:3] E,6D,2 | 
[V:1] E4D4 | 
[V:2] BAA4^G2 | 
[V:3] C,4B,,4 | 
[V:1] C4z2C2- | 
[V:2] A4z4 | 
[V:3] A,,8 | 
[V:1] CDEFG2C2- | 
[V:2] c8 | 
[V:3] z8 | 
[V:1] CDEFGABc | 
[V:2] c4e4 | 
[V:3] z8 | 
[V:1] BAA4^G2 | 
[V:2] d4B4 | 
[V:3] z8 | 
[V:1] A8 | 
[V:2] A3Bc2F2- | 
[V:3] F,8 | 
[V:1] z8 | 
[V:2] FGABcdef | 
[V:3] F,4A,4 | 
[V:1] z8 | 
[V:2] edd4^c2 | 
[V:3] G,4E,4 | 
[V:1] F8 | 
[V:2] d2DEFGA2 | 
[V:3] D,E,F,G,A,2D,E, | 
[V:1] F4A4 | 
[V:2] D2A4F2 | 
[V:3] F,G,A,B,CDEF | 
[V:1] G4E4 | 
[V:2] G4A4 | 
[V:3] EDD4^C2 | 
[V:1] D8- | 
[V:2] z2D2G2F2 | 
[V:3] D8 | 
[V:1] D8- | 
[V:2] G2G2D4 | 
[V:3] z4z2D,2 | 
[V:1] D8 | 
[V:2] z8 | 
[V:3] G,2F,2G,2G,2 | 
[V:1] A8 | 
[V:2] z2A2d2c2 | 
[V:3] D,4z4 | 
[V:1] A4A4 | 
[V:2] d2d2A4 | 
[V:3] z8 | 
[V:1] A4A4 | 
[V:2] z2c2f2e2 | 
[V:3] A,8 | 
[V:1] A8 | 
[V:2] f2f2c4 | 
[V:3] A,4A,4 | 
[V:1] c3BAGA2- | 
[V:2] z8 | 
[V:3] A,4A,4 | 
[V:1] A2GFE4 | 
[V:2] e8 | 
[V:3] A,8 | 
[V:1] z2c3Bc2- | 
[V:2] e4e4 | 
[V:3] C3B,A,G,A,2- | 
[V:1] c2BAGFED | 
[V:2] e4e4 | 
[V:3] A,2G,F,E,4 | 
[V:1] C3DEFG2- | 
[V:2] e8 | 
[V:3] z8 | 
[V:1] GFGAB2c2- | 
[V:2] g3fede2- | 
[V:3] E,8 | 
[V:1] cBA4^G2 | 
[V:2] e2dcB4 | 
[V:3] A,,4E,4 | 
[V:1] A4z2G2- | 
[V:2] z2A2B2c2 | 
[V:3] F,4E,4 | 
[V:1] GFFE/D/E2A2- | 
[V:2] d2B2c4 | 
[V:3] D,4C,4 | 
[V:1] AGG4F2 | 
[V:2] B3A/G/A4 | 
[V:3] D,8 | 
[V:1] G3FGEF2 | 
[V:2] G4z2B2 | 
[V:3] E,6D,2 | 
[V:1] E2G3FED | 
[V:2] c4d3e | 
[V:3] C,4_B,,4 | 
[V:1] C2c3BA2- | 
[V:2] f2e3dcB | 
[V:3] A,,8 | 
[V:1] A2GFE4 | 
[V:2] A8 | 
[V:3] z8 | 
[V:1] z2c3BA2- | 
[V:2] z8 | 
[V:3] A,8 | 
[V:1] A2GFE4 | 
[V:2] z4z2c2 | 
[V:3] D,4A,4 | 
[V:1] D4z2A2 | 
[V:2] dcdBc4 | 
[V:3] B,4A,4 | 
[V:1] BABGA2c2- | 
[V:2] z2e2fefd | 
[V:3] G,4F,4 | 
[V:1] cBcABcdB | 
[V:2] e4d2g2 | 
[V:3] G,8 | 
[V:1] c3dedf2 | 
[V:2] f2e3Aa2- | 
[V:3] A,6A,2 | 
[V:1] e2d4^c2 | 
[V:2] a2gfe4 | 
[V:3] A,4A,4 | 
[V:1] d8 |]  
[V:2] d8 |]  
[V:3] D,8 |]  



